Simply-Black-Circles/scalable/apps/compton.svg

<svg xmlns="http://www.w3.org/2000/svg" width="48" height="48" viewBox="0 0 12.7 12.7"><path fill="#1a1a1a" d="M6.344.073a6.29 6.29 0 0 0-6.29 6.29 6.29 6.29 0 0 0 6.29 6.288 6.29 6.29 0 0 0 6.29-6.289 6.29 6.29 0 0 0-6.29-6.29zm-.018.936a5.407 5.407 0 0 1 5.407 5.407 5.407 5.407 0 0 1-5.407 5.407A5.407 5.407 0 0 1 .92 6.416 5.407 5.407 0 0 1 6.326 1.01zm-.936.578a.243.243 0 0 0-.205.194l-.197 1.02c-.355.14-.69.334-.982.572l-.974-.334a.241.241 0 0 0-.279.104l-.937 1.652a.249.249 0 0 0 .052.298l.776.692a3.855 3.855 0 0 0-.044.565c0 .193.016.38.044.566l-.776.692a.249.249 0 0 0-.052.297l.937 1.653a.24.24 0 0 0 .279.103l.974-.334c.293.238.627.432.982.573l.198 1.02c.02.106.12.191.227.192h1.875a.242.242 0 0 0 .227-.193l.198-1.02c.355-.14.688-.334.981-.572l.975.334a.24.24 0 0 0 .277-.103l.938-1.653a.249.249 0 0 0-.051-.297l-.776-.692c.027-.186.043-.373.043-.566 0-.193-.016-.38-.043-.565l.776-.692a.249.249 0 0 0 .051-.298l-.938-1.652a.239.239 0 0 0-.277-.104l-.975.334a3.76 3.76 0 0 0-.981-.573l-.198-1.019a.243.243 0 0 0-.227-.194H5.39zm.98 2.545a2.222 2.222 0 0 1 2.223 2.223A2.222 2.222 0 0 1 6.37 8.577a2.222 2.222 0 0 1-2.222-2.222A2.222 2.222 0 0 1 6.37 4.132zm.067.66A1.567 1.567 0 0 0 4.87 6.359a1.567 1.567 0 0 0 1.567 1.567 1.567 1.567 0 0 0 .985-.349l-.37-.37a1.038 1.038 0 0 1-.605.195A1.038 1.038 0 0 1 5.41 6.364a1.038 1.038 0 0 1 1.038-1.038 1.038 1.038 0 0 1 .631.214l.386-.364a1.567 1.567 0 0 0-1.027-.384z"/></svg>

<?xml version="1.0" encoding="UTF-8" standalone="no"?>
<svg
   xmlns:dc="http://purl.org/dc/elements/1.1/"
   xmlns:cc="http://creativecommons.org/ns#"
   xmlns:rdf="http://www.w3.org/1999/02/22-rdf-syntax-ns#"
   xmlns:svg="http://www.w3.org/2000/svg"
   xmlns="http://www.w3.org/2000/svg"
   xmlns:sodipodi="http://sodipodi.sourceforge.net/DTD/sodipodi-0.dtd"
   xmlns:inkscape="http://www.inkscape.org/namespaces/inkscape"
   width="48"
   height="48"
   viewBox="0 0 12.7 12.7"
   version="1.1"
   id="svg4"
   sodipodi:docname="compton.svg"
   inkscape:version="0.92.4 (5da689c313, 2019-01-14)">
  <metadata
     id="metadata10">
    <rdf:RDF>
      <cc:Work
         rdf:about="">
        <dc:format>image/svg+xml</dc:format>
        <dc:type
           rdf:resource="http://purl.org/dc/dcmitype/StillImage" />
        <dc:title></dc:title>
      </cc:Work>
    </rdf:RDF>
  </metadata>
  <defs
     id="defs8" />
  <sodipodi:namedview
     pagecolor="#ffffff"
     bordercolor="#666666"
     borderopacity="1"
     objecttolerance="10"
     gridtolerance="10"
     guidetolerance="10"
     inkscape:pageopacity="0"
     inkscape:pageshadow="2"
     inkscape:window-width="1087"
     inkscape:window-height="480"
     id="namedview6"
     showgrid="false"
     inkscape:zoom="4.9166667"
     inkscape:cx="2.1355932"
     inkscape:cy="24"
     inkscape:window-x="0"
     inkscape:window-y="25"
     inkscape:window-maximized="0"
     inkscape:current-layer="svg4" />
  <path
     d="m 6.344,0.073 a 6.29,6.29 0 0 0 -6.29,6.29 6.29,6.29 0 0 0 6.29,6.288 6.29,6.29 0 0 0 6.29,-6.289 6.29,6.29 0 0 0 -6.29,-6.29 z M 6.326,1.009 A 5.407,5.407 0 0 1 11.733,6.416 5.407,5.407 0 0 1 6.326,11.823 5.407,5.407 0 0 1 0.92,6.416 5.407,5.407 0 0 1 6.326,1.01 Z M 5.39,1.587 A 0.243,0.243 0 0 0 5.185,1.781 L 4.988,2.801 C 4.633,2.941 4.298,3.135 4.006,3.373 L 3.032,3.039 A 0.241,0.241 0 0 0 2.753,3.143 L 1.816,4.795 A 0.249,0.249 0 0 0 1.868,5.093 L 2.644,5.785 A 3.855,3.855 0 0 0 2.6,6.35 c 0,0.193 0.016,0.38 0.044,0.566 L 1.868,7.608 A 0.249,0.249 0 0 0 1.816,7.905 L 2.753,9.558 A 0.24,0.24 0 0 0 3.032,9.661 L 4.006,9.327 C 4.299,9.565 4.633,9.759 4.988,9.9 l 0.198,1.02 c 0.02,0.106 0.12,0.191 0.227,0.192 H 7.288 A 0.242,0.242 0 0 0 7.515,10.919 L 7.713,9.899 C 8.068,9.759 8.401,9.565 8.694,9.327 L 9.669,9.661 A 0.24,0.24 0 0 0 9.946,9.558 L 10.884,7.905 A 0.249,0.249 0 0 0 10.833,7.608 L 10.057,6.916 C 10.084,6.73 10.1,6.543 10.1,6.35 10.1,6.157 10.084,5.97 10.057,5.785 L 10.833,5.093 A 0.249,0.249 0 0 0 10.884,4.795 L 9.946,3.143 A 0.239,0.239 0 0 0 9.669,3.039 L 8.694,3.373 A 3.76,3.76 0 0 0 7.713,2.8 L 7.515,1.781 A 0.243,0.243 0 0 0 7.288,1.587 Z M 6.37,4.132 A 2.222,2.222 0 0 1 8.593,6.355 2.222,2.222 0 0 1 6.37,8.577 2.222,2.222 0 0 1 4.148,6.355 2.222,2.222 0 0 1 6.37,4.132 Z m 0.067,0.66 A 1.567,1.567 0 0 0 4.87,6.359 1.567,1.567 0 0 0 6.437,7.926 1.567,1.567 0 0 0 7.422,7.577 L 7.052,7.207 A 1.038,1.038 0 0 1 6.447,7.402 1.038,1.038 0 0 1 5.41,6.364 1.038,1.038 0 0 1 6.448,5.326 1.038,1.038 0 0 1 7.079,5.54 L 7.465,5.176 A 1.567,1.567 0 0 0 6.438,4.792 Z"
     id="path2"
     inkscape:connector-curvature="0"
     style="fill:#1a1a1a" />
</svg>
